static/icons/bisq.svg

<svg width="112" height="124" viewBox="0 0 112 124" fill="none" xmlns="http://www.w3.org/2000/svg">
<path d="M100.747 29.2912C104.952 38.4336 105.845 40.3218 109.069 49.619C110.92 55.4599 107.212 64.1111 91.9251 56.7574C81.038 51.5677 73.161 47.8909 79.6483 39.2398C82.8098 35.0419 86.3891 31.1323 90.3385 27.5631C94.5413 23.8925 97.1439 21.5791 100.747 29.2912ZM97.1226 87.85C105.129 79.9763 116.253 88.785 108.483 99.3542C92.8268 120.757 65.4948 129.292 41.0042 120.692C16.5136 112.092 -0.00432728 88.5782 0.000528497 61.6796C-0.061193 45.5645 5.2843 32.1172 15.498 20.0042C25.3294 9.00311 39.9655 0.188231 54.4006 0C74.6919 0 83.7575 17.7501 76.611 27.6482C68.6255 38.654 59.3397 37.7591 52.4343 33.0392C52.4343 33.0392 42.9336 26.3004 40.1284 24.0524C35.808 20.6857 31.0576 20.6857 29.3326 26.0767C26.3125 35.7348 24.8024 41.8024 22.4272 51.4605C21.3222 56.3198 20.7436 61.2925 20.7022 66.2858C20.7518 75.4779 24.8006 84.1517 31.713 89.8744C36.486 94.3575 41.6127 98.4151 47.039 102.004C51.408 104.985 56.497 106.621 61.7201 106.724H62.1501C67.3733 106.621 72.4622 104.985 76.8312 102.004C83.8876 97.7572 90.6663 93.0288 97.1226 87.85ZM40.0374 76.7196C37.1578 75.6648 30.6391 69.9758 32.5542 65.7565C33.323 63.4368 38.8865 62.807 40.6105 62.807C50.7822 62.5971 51.1643 80.729 40.0374 76.7196ZM57.9272 96.038C56.628 94.8732 54.2452 92.5437 52.0781 90.6009C51.478 89.9495 51.3625 89.0422 51.7835 88.2863C52.2045 87.5304 53.0829 87.068 54.0243 87.1067C57.847 86.9125 61.6789 86.9125 65.5016 87.1067C66.3885 87.1719 67.156 87.6853 67.4784 88.4289C67.8008 89.1725 67.6214 90.0158 67.0164 90.6009C64.8546 92.5437 62.4718 94.8732 61.3883 96.038C60.9181 96.4271 60.2974 96.6368 59.6577 96.6227C59.018 96.6368 58.3973 96.4271 57.9272 96.038ZM80.7418 76.7196C69.6149 80.729 69.997 62.5971 80.1687 62.807C81.8927 62.807 87.2652 63.4368 88.225 65.7565C90.1401 69.9758 83.6214 75.6648 80.7418 76.7196Z" fill="#25B135"/>
</svg>

<svg width="112" height="124" fill="none" xmlns="http://www.w3.org/2000/svg"><path d="M100.747 29.291c4.205 9.143 5.098 11.03 8.322 20.328 1.851 5.84-1.857 14.492-17.144 7.138-10.887-5.19-18.764-8.866-12.277-17.517a83.258 83.258 0 0 1 10.69-11.677c4.203-3.67 6.806-5.984 10.409 1.728ZM97.123 87.85c8.006-7.874 19.13.935 11.36 11.504-15.656 21.403-42.988 29.938-67.479 21.338C16.514 112.092-.004 88.578.001 61.68c-.062-16.115 5.283-29.563 15.497-41.676C25.329 9.004 39.966.188 54.401 0c20.29 0 29.356 17.75 22.21 27.648C68.625 38.654 59.34 37.76 52.434 33.04c0 0-9.5-6.739-12.306-8.987-4.32-3.366-9.07-3.366-10.795 2.025-3.02 9.658-4.53 15.725-6.906 25.384a69.471 69.471 0 0 0-1.725 14.825c.05 9.192 4.099 17.866 11.011 23.588 4.773 4.484 9.9 8.541 15.326 12.13 4.369 2.981 9.458 4.617 14.681 4.72h.43c5.223-.103 10.312-1.739 14.681-4.72A184.391 184.391 0 0 0 97.123 87.85ZM40.037 76.72c-2.88-1.055-9.398-6.744-7.483-10.963.769-2.32 6.332-2.95 8.056-2.95 10.172-.21 10.554 17.922-.573 13.913Zm17.89 19.318c-1.299-1.165-3.682-3.494-5.849-5.437-.6-.651-.716-1.559-.295-2.315.422-.756 1.3-1.218 2.241-1.18 3.823-.194 7.655-.194 11.478 0 .886.066 1.654.58 1.976 1.323.323.743.143 1.587-.462 2.172-2.161 1.943-4.544 4.272-5.628 5.437-.47.39-1.09.599-1.73.585a2.63 2.63 0 0 1-1.73-.585ZM80.742 76.72c-11.127 4.009-10.745-14.123-.573-13.913 1.724 0 7.096.63 8.056 2.95 1.915 4.219-4.604 9.908-7.483 10.963Z" fill="#25B135"/></svg>
